X:1
T:The Foundation of God Standeth Sure
T:The Foundation of God Standeth Sure
T:Edmund Simon Lorenz
T:Louis E. Holcomb, 1915
T:Public Domain Courtesy of the Cyber Hymnal™
T:Public Domain Courtesy of the Cyber Hymnal™
C:Edmund Simon Lorenz
Z:Public Domain
Z:Courtesy of the Cyber Hymnal™
%%score ( 1 2 ) ( 3 4 )
L:1/8
Q:1/4=140
M:6/4
K:Ab
V:1 treble 
V:2 treble 
V:3 bass 
V:4 bass 
V:1
 [CE]2 | [CE]2 [CA]2 [DB]2 [Ec]2 [_GB]2 [Gc]2 | [Fd]2 [DF]2 [FA]2 [Ec]4 [Ec][Ec] | %3
w: 1.~In|mo- ments of doubt and of|tri- als se- vere, And of|
w: 2.~O|wea- ry one, be not dis-|cour- aged by doubt, For the|
w: 3.~In|tri- umph the an- gels are|sing- ing the strain, In the|
 [Ec]2 [DB]2 [C=A]2 [DB]2 [DF]2 [DG]2 | [C-F]6 [CE]4 [CE]2 | [CE]2 [CA]2 [DB]2 [Ec]2 [_GB]2 [Gc]2 | %6
w: sor- rows so hard to en-|dure; * This|thought to my heart bring- eth|
w: king- dom of God is se-|cure; * Though|Sa- tan in bold- ness God’s|
w: heav- en- ly realms of the|pure, * While|child- ren of earth join the|
 [Fd]2 [DF]2 [FA]2 [Ec]4 [Ec][Ec] | [=Dc]2 [DB]2 [DA]2 [DG]2 [DA]2 [DF]2 | E6- E4 ||"^Refrain" EE | %10
w: com- fort and cheer: The foun-|da- tion of God stand- eth|sure. *||
w: pow- ers may flout, The foun-|da- tion of God stand- eth|sure. *||
w: might- y re- frain, The foun-|da- tion of God stand- eth|sure. *||
 ([Ed]2 G2 A2) ([Bd]2 G2 E2) | [Ac]2 [ce]2 [df]2 [ce]4 [Ec][Ec] | [=Dc]2 B2 A2 [DF]2 G2 [DA]2 | %13
w: |||
w: Sure! * * Sure! * *|Sure, ev- er sure! The found-|a- tion of God stand- eth|
w: |||
 B6- [EB]4 [DE]2 | [CE]2 [CA]2 [DB]2 [Ec]2 [_GB]2 [Ec]2 | [Fd]2 [DF]2 [FA]2 [Ec]4 [_Ge]2 | %16
w: |||
w: sure! No mat-|* ter what forc- es of|e- vil a- bound, God’s|
w: |||
 [Fe]2 [Fd]2 [FB]2 [EA]2 [Gc]2 [EB]2 | [EA]6- [EA]4 |] %18
w: ||
w: king- dom shall ev- er en-|dure! *|
w: ||
V:2
 x2 | x12 | x12 | x12 | x12 | x12 | x12 | x12 | E6- E4 || x2 | x12 | x12 | x12 | D2 G2 F2 x6 | %14
 x12 | x12 | x12 | x10 |] %18
V:3
 [A,,A,]2 | [A,,A,]2 [A,,A,]2 [A,,A,]2 [A,,A,]2 [A,,A,]2 [A,,A,]2 | %2
 [D,A,]2 [D,A,]2 [D,A,]2 [A,,A,]4 [A,,A,][A,,A,] | %3
 [E,A,]2 [E,G,]2 [E,^F,]2 [E,G,]2 [E,A,]2 [E,B,]2 | z2 [A,,A,]4 [A,,A,]2 x4 | %5
 [A,,A,]2 [A,,A,]2 [A,,A,]2 [A,,A,]2 [A,,A,]2 [A,,A,]2 | %6
 [D,A,]2 [D,A,]2 [D,A,]2 [A,,A,]4 [A,,A,][A,,A,] | %7
 [B,,A,]2 [B,,F,]2 [B,,F,]2 [B,,B,]2 [B,,B,]2 [B,,B,]2 | [E,G,]6- [E,G,]4 || z2 | %10
 [E,B,]2 z4 [E,E]2 z4 | [A,E]2 [A,E]2 [A,F]2 [A,E]4 [A,,A,][A,,A,] | [B,,A,]2 z4 [B,,B,]2 z4 | %13
 [E,G,]2 [E,B,]2 [E,A,]2 [E,G,]4 [E,G,]2 | [A,,A,]2 [A,,A,]2 [A,,A,]2 [A,,A,]2 [A,,A,]2 [A,,A,]2 | %15
 [D,A,]2 [D,A,]2 [D,A,]2 [A,,A,]4 [A,,C]2 | [B,,C]2 [B,,B,]2 [D,A,]2 [E,C]2 [E,E]2 [E,D]2 | %17
 [A,,C]6- [A,,C]4 |] %18
V:4
 x2 | x12 | x12 | x12 | ([A,,A,]6- C,2) E,2 x2 | x12 | x12 | x12 | x10 || x2 | x12 | x12 | x12 | %13
 x12 | x12 | x12 | x12 | x10 |] %18

